X: 40614
T: Tongs By The Fire, The
R: jig
M: 6/8
K: Gmajor
|:E/F/||GBd cAF|dge dBG|cec BdB|ABG FED|
GBd cAF|Gge dBG|cec Bag|fef g2:|
|:f||gdB gdB|gfa gdB|gfg eag|fd^c def|
gbg faf|e/f/ge def|gdB AGA|BGF G2:|

